X:97
T:Chelmsford Assembly. JJo8.097
%%VWML:JohnsonVol8-2184-p49-0
F:http://www.vwml.org/record/JohnsonVol8/2184/p49
Z:Transcribed by Simon Furey and Lewis Jones
Z:vmp.Simon Wilson 2013 www.village-music-project.org.uk
Z:Dance added by John Chambers 2017
M:6/8
L:1/8
%Q:3/8=120
K:G
|:\
GBd cBA | G2b g2d | (Bd)g- gdB | cAG FDF |\
GBd cBA | G2b g2d | efg Ee^c | d3 D3 :|
|:\
(de)=f- fdB | G2=f e2c | (e^f)g- ge^c | A2g f2d |\
b2g e=ce | a2f dBd | gec Aaf | g3 G3 :|
W: First Man cast off two Cu. and fall in between the 3d
W:Cu. his Partner ad the same time cast off one Cu. and
W:back again and fall in between the 2d Cu. .| set 3 Top
W:and Bottom then turn 3 Top and Bottom :| the Man cast
W:up his Partner at the same time cast off and both turn in
W:the 2d Cu. Place :||. Right Hands and Left :||:
W:
T:Eliz'h Canning. JJo8.098
B:J.Johnson Choice Collection Vol 8 1758
Z:vmp.Simon Wilson 2013 www.village-music-project.org.uk
Z:Dance added by John Chambers 2017
M:C|
L:1/8
%Q:1/2=80
N:Elizabeth Canning was the subject of one of the most sensational trials of the 1750s
K:A
   e/d/ |\
ceAa(f2e)a | dfce dB- Be/d/ |\
ceAa(f2e)a | ceBd cA-A :|
|: e/d/ |\
c2(d/c/B/A/) GB-Bd | cAac dB-Be/d/ |\
c2(d/c/B/A/) GB-Bd | ceae cA-A :|
W: First Cu swing hands round and
W:cast off .| Lead thro' the 3d Cu. cast
W:up and foot it :| Right hands across
W:with the 3d Cu. :||. Right hands and
W:Left with the 2d Cu. :||:
W:
